src/assets/emoji/noto-emoji/231A.svg

<svg enable-background="new 0 0 128 128" viewBox="0 0 128 128" xmlns="http://www.w3.org/2000/svg"><rect x="-528" y="-56.67" width="0" height=".67" fill="#F2F2F2"/><circle cx="28.87" cy="64.09" r="3" fill="#757575"/><path d="m110.73 72h-7.11c-2.46 0-4.45-1.99-4.45-4.45v-7.44c0-2.46 1.99-4.45 4.45-4.45h7.11c2.46 0 4.45 1.99 4.45 4.45v7.44c-0.01 2.46-2 4.45-4.45 4.45z" fill="#616161"/><g opacity=".2"><path d="m110.73 57.67c1.35 0 2.45 1.1 2.45 2.45v7.44c0 1.35-1.1 2.45-2.45 2.45h-7.11c-1.35 0-2.45-1.1-2.45-2.45v-7.44c0-1.35 1.1-2.45 2.45-2.45h7.11m0-2h-7.11c-2.46 0-4.45 1.99-4.45 4.45v7.44c0 2.46 1.99 4.45 4.45 4.45h7.11c2.46 0 4.45-1.99 4.45-4.45v-7.44c-0.01-2.46-2-4.45-4.45-4.45z" fill="#424242"/></g><linearGradient id="c" x1="60.456" x2="60.456" y1="1.6667" y2="21.678" gradientUnits="userSpaceOnUse"><stop stop-color="#A1887F" offset="0"/><stop stop-color="#795548" offset="1"/></linearGradient><polygon points="78.43 3.97 42.32 3.97 36.46 32.06 84.45 32.06" fill="url(#c)"/><linearGradient id="b" x1="60.456" x2="60.456" y1="136.33" y2="108.98" gradientUnits="userSpaceOnUse"><stop stop-color="#A1887F" offset="0"/><stop stop-color="#795548" offset="1"/></linearGradient><polygon points="42.48 123.82 78.6 123.82 84.45 95.73 36.46 95.73" fill="url(#b)"/><g opacity=".2"><path d="m76.01 6.97 4.73 22.09h-40.59l4.6-22.09h31.26m2.42-3h-36.11l-5.85 28.09h47.98l-6.02-28.09z" fill="#424242"/></g><g opacity=".2"><path d="m80.76 98.73-4.6 22.09h-31.25l-4.73-22.09h40.58m3.69-3zm0 0h-47.99l6.02 28.09h36.12l5.85-28.09z" fill="#424242"/></g><circle cx="60.33" cy="64" r="47.5" fill="#9E9E9E"/><linearGradient id="a" x1="60.546" x2="60.546" y1="33.893" y2="111.85" gradientUnits="userSpaceOnUse"><stop stop-color="#ECEFF1" offset=".3212"/><stop stop-color="#B0BEC5" offset="1"/></linearGradient><circle cx="60.55" cy="64" r="40.5" fill="url(#a)"/><path d="m60.33 34c-1.66 0-3 1.34-3 3v24c0 1.66 1.34 3 3 3s3-1.34 3-3v-24c0-1.66-1.35-3-3-3z" fill="#424242"/><path d="m60.23 63.99c0 1.66 1.34 3 3 3h15.89c1.66 0 3-1.34 3-3s-1.34-3-3-3h-15.89c-1.65 0-3 1.34-3 3z" fill="#424242"/><circle cx="60.33" cy="64" r="5.25" fill="#424242"/><circle cx="60.33" cy="64" r="2.25" fill="#CFD8DC"/><circle cx="60.24" cy="29.04" r="3" fill="#757575"/><circle cx="60.24" cy="99.15" r="3" fill="#757575"/><circle cx="95.3" cy="64.09" r="3" fill="#757575"/><circle cx="26.3" cy="64.09" r="3" fill="#757575"/><g opacity=".2"><path d="m60.55 25.5c21.23 0 38.5 17.27 38.5 38.5s-17.27 38.5-38.5 38.5-38.5-17.27-38.5-38.5 17.27-38.5 38.5-38.5m0-2c-22.37 0-40.5 18.13-40.5 40.5s18.13 40.5 40.5 40.5 40.5-18.13 40.5-40.5-18.14-40.5-40.5-40.5z" fill="#424242"/></g><g opacity=".2"><path d="m60.33 19.5c24.54 0 44.5 19.96 44.5 44.5s-19.96 44.5-44.5 44.5-44.5-19.96-44.5-44.5 19.96-44.5 44.5-44.5m0-3c-26.23 0-47.5 21.27-47.5 47.5s21.27 47.5 47.5 47.5 47.5-21.27 47.5-47.5-21.27-47.5-47.5-47.5z" fill="#424242"/></g></svg>

<?xml version="1.0" encoding="utf-8"?>
<!-- Generator: Adobe Illustrator 24.0.3, SVG Export Plug-In . SVG Version: 6.00 Build 0)  -->
<svg version="1.1" id="Layer_1" xmlns="http://www.w3.org/2000/svg" xmlns:xlink="http://www.w3.org/1999/xlink" x="0px" y="0px"
	 viewBox="0 0 128 128" style="enable-background:new 0 0 128 128;" xml:space="preserve">
<circle style="fill:#757575;" cx="28.9" cy="64.1" r="3"/>
<path style="fill:#616161;" d="M110.7,72h-7.1c-2.5,0-4.4-2-4.4-4.4v-7.4c0-2.5,2-4.5,4.4-4.5h7.1c2.5,0,4.4,2,4.4,4.5v7.4
	C115.2,70,113.2,72,110.7,72z"/>
<g style="opacity:0.2;">
	<path style="fill:#424242;" d="M110.7,57.7c1.3,0,2.4,1.1,2.4,2.5v7.4c0,1.3-1.1,2.4-2.4,2.4h-7.1c-1.3,0-2.4-1.1-2.4-2.4v-7.4
		c0-1.3,1.1-2.5,2.4-2.5L110.7,57.7 M110.7,55.7h-7.1c-2.5,0-4.4,2-4.4,4.5v7.4c0,2.5,2,4.4,4.4,4.4h7.1c2.5,0,4.4-2,4.4-4.4v-7.4
		C115.2,57.7,113.2,55.7,110.7,55.7z"/>
</g>
<linearGradient id="SVGID_1_" gradientUnits="userSpaceOnUse" x1="60.45" y1="715.6667" x2="60.45" y2="735.678" gradientTransform="matrix(1 0 0 1 0 -714)">
	<stop  offset="0" style="stop-color:#A1887F"/>
	<stop  offset="1" style="stop-color:#795548"/>
</linearGradient>
<polygon style="fill:url(#SVGID_1_);" points="78.4,4 42.3,4 36.5,32.1 84.4,32.1 "/>
<linearGradient id="SVGID_2_" gradientUnits="userSpaceOnUse" x1="60.45" y1="850.33" x2="60.45" y2="822.98" gradientTransform="matrix(1 0 0 1 0 -714)">
	<stop  offset="0" style="stop-color:#A1887F"/>
	<stop  offset="1" style="stop-color:#795548"/>
</linearGradient>
<polygon style="fill:url(#SVGID_2_);" points="42.5,123.8 78.6,123.8 84.4,95.7 36.5,95.7 "/>
<g style="opacity:0.2;">
	<path style="fill:#424242;" d="M76,7l4.7,22.1H40.2L44.8,7H76 M78.4,4H42.3l-5.8,28.1h48C84.4,32.1,78.4,4,78.4,4z"/>
</g>
<g style="opacity:0.2;">
	<path style="fill:#424242;" d="M80.8,98.7l-4.6,22.1H44.9l-4.7-22.1H80.8z M84.5,95.7h-48l6,28.1h36.1
		C78.6,123.8,84.5,95.7,84.5,95.7z"/>
</g>
<circle style="fill:#9E9E9E;" cx="60.3" cy="64" r="47.5"/>
<linearGradient id="SVGID_3_" gradientUnits="userSpaceOnUse" x1="60.5" y1="747.8929" x2="60.5" y2="825.85" gradientTransform="matrix(1 0 0 1 0 -714)">
	<stop  offset="0.3212" style="stop-color:#ECEFF1"/>
	<stop  offset="1" style="stop-color:#B0BEC5"/>
</linearGradient>
<circle style="fill:url(#SVGID_3_);" cx="60.5" cy="64" r="40.5"/>
<path style="fill:#424242;" d="M60.3,34c-1.7,0-3,1.3-3,3v24c0,1.7,1.3,3,3,3s3-1.3,3-3V37C63.3,35.3,62,34,60.3,34z"/>
<path style="fill:#424242;" d="M60.2,64c0,1.7,1.3,3,3,3h15.9c1.7,0,3-1.3,3-3s-1.3-3-3-3H63.2C61.6,61,60.2,62.3,60.2,64z"/>
<circle style="fill:#424242;" cx="60.3" cy="64" r="5.2"/>
<circle style="fill:#CFD8DC;" cx="60.3" cy="64" r="2.2"/>
<circle style="fill:#757575;" cx="60.2" cy="29" r="3"/>
<circle style="fill:#757575;" cx="60.2" cy="99.1" r="3"/>
<circle style="fill:#757575;" cx="95.3" cy="64.1" r="3"/>
<circle style="fill:#757575;" cx="26.3" cy="64.1" r="3"/>
<g style="opacity:0.2;">
	<path style="fill:#424242;" d="M60.5,25.5C81.7,25.5,99,42.8,99,64s-17.3,38.5-38.5,38.5S22.1,85.2,22.1,64S39.3,25.5,60.5,25.5
		 M60.6,23.5c-22.4,0-40.5,18.1-40.5,40.5s18.1,40.5,40.5,40.5s40.5-18.1,40.5-40.5S82.9,23.5,60.6,23.5z"/>
</g>
<g style="opacity:0.2;">
	<path style="fill:#424242;" d="M60.3,19.5c24.5,0,44.5,20,44.5,44.5s-20,44.5-44.5,44.5S15.8,88.5,15.8,64S35.8,19.5,60.3,19.5
		 M60.3,16.5c-26.2,0-47.5,21.3-47.5,47.5s21.3,47.5,47.5,47.5s47.5-21.3,47.5-47.5S86.6,16.5,60.3,16.5z"/>
</g>
</svg>
